assets/icons/play-line.svg

<svg width="20" height="20" viewBox="0 0 20 20" fill="none" xmlns="http://www.w3.org/2000/svg">
<path d="M11.6174 5.28089C12.9782 6.05395 14.0476 6.66146 14.8094 7.21795C15.5764 7.77827 16.1437 8.36389 16.3469 9.13605C16.4959 9.70222 16.4959 10.2979 16.3469 10.8641C16.1437 11.6362 15.5764 12.2218 14.8094 12.7821C14.0476 13.3386 12.9782 13.9461 11.6175 14.7192C10.303 15.466 9.19449 16.0957 8.35299 16.4537C7.50474 16.8145 6.7314 16.9974 5.97979 16.7844C5.42743 16.6278 4.92483 16.3307 4.51996 15.9222C3.97048 15.3679 3.74992 14.6016 3.64557 13.6796C3.54198 12.7641 3.54198 11.5659 3.54199 10.0418V9.9583C3.54198 8.43422 3.54198 7.23596 3.64557 6.32059C3.74992 5.39847 3.97048 4.63223 4.51996 4.07784C4.92483 3.66936 5.42743 3.37227 5.97979 3.21574C6.7314 3.00276 7.50474 3.18563 8.35299 3.54643C9.19449 3.90435 10.303 4.53409 11.6174 5.28089Z" stroke="currentColor" stroke-width="1.5"/>
</svg>

<svg xmlns="http://www.w3.org/2000/svg" width="20" height="20" fill="none" viewBox="0 0 20 20"><path stroke="currentColor" stroke-width="1.5" d="M11.617 5.28c1.361.774 2.43 1.381 3.192 1.938.767.56 1.335 1.146 1.538 1.918a3.4 3.4 0 0 1 0 1.728c-.203.772-.77 1.358-1.538 1.918-.761.557-1.83 1.164-3.191 1.937-1.315.747-2.424 1.377-3.265 1.735-.848.36-1.622.543-2.373.33a3.34 3.34 0 0 1-1.46-.862c-.55-.554-.77-1.32-.874-2.242-.104-.916-.104-2.114-.104-3.638v-.084c0-1.524 0-2.722.104-3.637.104-.923.324-1.689.874-2.243a3.34 3.34 0 0 1 1.46-.862c.751-.213 1.525-.03 2.373.33.841.358 1.95.988 3.264 1.735Z"/></svg>
